assets/logos/cpm_light.svg

<?xml version="1.0" encoding="UTF-8"?>
<svg id="Calque_2" data-name="Calque 2" xmlns="http://www.w3.org/2000/svg" xmlns:xlink="http://www.w3.org/1999/xlink" viewBox="0 0 195.59 228.19">
  <defs>
    <style>
      .cls-1 {
        fill: #393939;
      }

      .cls-1, .cls-2, .cls-3, .cls-4 {
        stroke-width: 0px;
      }

      .cls-2 {
        fill: #8189c6;
      }

      .cls-3 {
        fill: url(#Dégradé_sans_nom_55);
        opacity: .79;
      }

      .cls-4 {
        fill: url(#Dégradé_sans_nom_10);
      }
    </style>
    <linearGradient id="Dégradé_sans_nom_55" data-name="Dégradé sans nom 55" x1="80.35" y1="152.13" x2="44.77" y2="152.13" gradientUnits="userSpaceOnUse">
      <stop offset="0" stop-color="#000"/>
      <stop offset=".75" stop-color="#262626" stop-opacity=".33"/>
      <stop offset=".86" stop-color="#393939" stop-opacity="0"/>
    </linearGradient>
    <radialGradient id="Dégradé_sans_nom_10" data-name="Dégradé sans nom 10" cx="92.86" cy="123.49" fx="92.86" fy="123.49" r="77.05" gradientUnits="userSpaceOnUse">
      <stop offset=".49" stop-color="#000"/>
      <stop offset=".99" stop-color="#393939" stop-opacity="0"/>
    </radialGradient>
  </defs>
  <g id="Calque_3" data-name="Calque 3">
    <g>
      <polygon class="cls-1" points="195.59 0 195.59 162.99 152.13 162.99 152.13 141.26 173.86 141.26 173.86 51.92 160.53 121.94 143.72 121.94 130.4 51.92 130.4 119.53 108.66 119.53 108.66 0 134.28 0 152.13 84.51 169.98 0 195.59 0"/>
      <path class="cls-1" d="m43.47,43.47v-15.45c0-3.47-2.81-6.28-6.28-6.28h-9.18c-3.47,0-6.28,2.81-6.28,6.28v106.97c0,3.47,2.81,6.28,6.28,6.28h37.19v21.73H21.64c-11.95,0-21.64-9.68-21.64-21.64V21.64C0,9.68,9.68,0,21.64,0h21.93c11.95,0,21.64,9.68,21.64,21.64v21.83h-21.73Z"/>
      <rect class="cls-3" x="42.84" y="141.26" width="22.36" height="21.73"/>
      <path class="cls-4" d="m130.4,56.28v32.6l-21.73-16.3v-26.89h1.57c8.37,0,15.74,4.19,20.16,10.59Z"/>
      <path class="cls-2" d="m65.2,65.2v162.99h21.73v-65.2h21.83c11.95,0,21.63-9.68,21.63-21.63v-54.54c0-11.95-9.68-21.63-21.63-21.63h-43.57Zm37.18,76.06h-15.45v-54.33h15.45c3.47,0,6.28,2.81,6.28,6.28v41.77c0,3.47-2.81,6.28-6.28,6.28Z"/>
    </g>
  </g>
</svg>

<?xml version="1.0" encoding="utf-8"?>
<!-- Generator: Adobe Illustrator 28.0.0, SVG Export Plug-In . SVG Version: 6.00 Build 0)  -->
<svg version="1.1" id="CPM" xmlns="http://www.w3.org/2000/svg" xmlns:xlink="http://www.w3.org/1999/xlink" x="0px" y="0px"
	 viewBox="0 0 195.6 228.2" style="enable-background:new 0 0 195.6 228.2;" xml:space="preserve">
<g id="CPM_00000096747967138515892780000015649209112165938821_">
	<polygon id="M" style="fill:#393939;" points="195.6,0 195.6,163 152.1,163 152.1,141.3 173.9,141.3 173.9,51.9 160.5,121.9 
		143.7,121.9 130.4,51.9 130.4,119.5 108.7,119.5 108.7,0 134.3,0 152.1,84.5 170,0 	"/>
	<path id="C" style="fill:#393939;" d="M43.5,43.5V28c0-3.5-2.8-6.3-6.3-6.3H28c-3.5,0-6.3,2.8-6.3,6.3v107c0,3.5,2.8,6.3,6.3,6.3
		h37.2V163H21.6C9.7,163,0,153.3,0,141.4V21.6C0,9.7,9.7,0,21.6,0h21.9c12,0,21.6,9.7,21.6,21.6v21.8H43.5L43.5,43.5z"/>
	
		<linearGradient id="CP_00000150072476526721215490000005792459835394447785_" gradientUnits="userSpaceOnUse" x1="80.35" y1="77.875" x2="44.77" y2="77.875" gradientTransform="matrix(1 0 0 -1 0 230)">
		<stop  offset="0" style="stop-color:#000000"/>
		<stop  offset="0.75" style="stop-color:#262626;stop-opacity:0.33"/>
		<stop  offset="0.86" style="stop-color:#393939;stop-opacity:0"/>
	</linearGradient>
	
		<rect id="CP" x="42.8" y="141.3" style="opacity:0.79;fill:url(#CP_00000150072476526721215490000005792459835394447785_);enable-background:new    ;" width="22.4" height="21.7"/>
	
		<radialGradient id="PM_00000160900326717518219400000001536762590503455377_" cx="92.86" cy="106.51" r="77.05" gradientTransform="matrix(1 0 0 -1 0 230)" gradientUnits="userSpaceOnUse">
		<stop  offset="0.49" style="stop-color:#000000"/>
		<stop  offset="0.99" style="stop-color:#393939;stop-opacity:0"/>
	</radialGradient>
	<path id="PM" style="fill:url(#PM_00000160900326717518219400000001536762590503455377_);" d="M130.4,56.3v32.6l-21.7-16.3V45.7
		h1.6C118.6,45.7,126,49.9,130.4,56.3z"/>
	<path id="P" style="fill:#8189C6;" d="M65.2,65.2v163h21.7V163h21.8c11.9,0,21.6-9.7,21.6-21.6V86.8c0-11.9-9.7-21.6-21.6-21.6
		L65.2,65.2L65.2,65.2z M102.4,141.3H86.9V86.9h15.4c3.5,0,6.3,2.8,6.3,6.3V135C108.7,138.4,105.8,141.3,102.4,141.3z"/>
</g>
</svg>
